build/category/LineChartSolid.svg

<svg xmlns="http://www.w3.org/2000/svg" fill="none" viewBox="0 0 24 24" focusable="false"><path d="M0 0H24V24H0z" transform="matrix(1 0 0 -1 0 24)"/><path fill="#74767B" fill-rule="evenodd" d="M11.0697 13.2016L8.75729 10.8862C8.88219 10.623 8.95206 10.3287 8.95206 10.018C8.95206 8.89808 8.04421 7.99023 6.92432 7.99023C5.80443 7.99023 4.89658 8.89808 4.89658 10.018C4.89658 11.1379 5.80443 12.0457 6.92432 12.0457C7.25917 12.0457 7.57506 11.9646 7.85339 11.8208L10.1659 14.1363C10.0411 14.3994 9.97129 14.6937 9.97129 15.0043C9.97129 16.1242 10.8791 17.032 11.999 17.032C13.1189 17.032 14.0268 16.1242 14.0268 15.0043C14.0268 14.6088 13.9136 14.2398 13.7178 13.9278L16.647 8.9284C16.7991 8.96484 16.9578 8.98413 17.1211 8.98413C18.241 8.98413 19.1488 8.07628 19.1488 6.95639C19.1488 5.8365 18.241 4.92865 17.1211 4.92865C16.0012 4.92865 15.0934 5.8365 15.0934 6.95639C15.0934 7.44092 15.2633 7.88575 15.5468 8.23454L12.6963 13.0996C12.4789 13.02 12.244 12.9766 11.999 12.9766C11.6641 12.9766 11.3481 13.0578 11.0697 13.2016ZM3.37988 19.3447C3.37988 18.9857 3.6709 18.6947 4.02988 18.6947L19.9952 18.6947C20.3541 18.6947 20.6452 18.9857 20.6452 19.3447C20.6452 19.7037 20.3541 19.9947 19.9952 19.9947L4.02988 19.9947C3.6709 19.9947 3.37988 19.7037 3.37988 19.3447Z"/><path fill="#74767B" fill-rule="evenodd" d="M8.95206 10.018C8.95206 10.3287 8.88219 10.623 8.75729 10.8862L11.0697 13.2016C11.3481 13.0578 11.6641 12.9766 11.999 12.9766C12.244 12.9766 12.4789 13.02 12.6963 13.0996L15.5468 8.23454C15.2633 7.88575 15.0934 7.44092 15.0934 6.95639C15.0934 5.8365 16.0012 4.92865 17.1211 4.92865C18.241 4.92865 19.1488 5.8365 19.1488 6.95639C19.1488 8.07628 18.241 8.98413 17.1211 8.98413C16.9578 8.98413 16.7991 8.96484 16.647 8.9284L13.7178 13.9278C13.9136 14.2398 14.0268 14.6088 14.0268 15.0043C14.0268 16.1242 13.1189 17.032 11.999 17.032C10.8791 17.032 9.97129 16.1242 9.97129 15.0043C9.97129 14.6937 10.0411 14.3994 10.1659 14.1363L7.85339 11.8208C7.57506 11.9646 7.25917 12.0457 6.92432 12.0457C5.80443 12.0457 4.89658 11.1379 4.89658 10.018C4.89658 8.89808 5.80443 7.99023 6.92432 7.99023C8.04421 7.99023 8.95206 8.89808 8.95206 10.018ZM7.47688 10.5522L7.25693 10.6657C7.21427 10.6878 7.17032 10.7052 7.12506 10.7182C7.06077 10.7365 6.99386 10.7457 6.92432 10.7457C6.82384 10.7457 6.73072 10.728 6.64495 10.6924C6.55919 10.6569 6.48078 10.6036 6.40973 10.5326C6.33868 10.4615 6.2854 10.3831 6.24987 10.2973C6.21434 10.2116 6.19658 10.1185 6.19658 10.018C6.19658 9.9175 6.21434 9.82437 6.24987 9.73861C6.28539 9.65284 6.33868 9.57444 6.40973 9.50338C6.48078 9.43233 6.55919 9.37905 6.64495 9.34352C6.73072 9.308 6.82384 9.29023 6.92432 9.29023C7.0248 9.29023 7.11793 9.308 7.20369 9.34352C7.28946 9.37905 7.36786 9.43233 7.43891 9.50338C7.50996 9.57444 7.56325 9.65285 7.59878 9.73861C7.6343 9.82438 7.65206 9.9175 7.65206 10.018C7.65206 10.0851 7.64346 10.1499 7.62625 10.2124C7.61527 10.2522 7.60079 10.291 7.58282 10.3289L7.47688 10.5522ZM11.4464 14.4702L11.3405 14.6934C11.3225 14.7313 11.3081 14.7701 11.2971 14.8099C11.2799 14.8723 11.2713 14.9371 11.2713 15.0043C11.2713 15.1048 11.2891 15.1979 11.3246 15.2837C11.3601 15.3694 11.4134 15.4478 11.4844 15.5189C11.5555 15.5899 11.6339 15.6432 11.7197 15.6788C11.8054 15.7143 11.8985 15.732 11.999 15.732C12.0995 15.732 12.1926 15.7143 12.2784 15.6788C12.3642 15.6432 12.4426 15.5899 12.5136 15.5189C12.5847 15.4478 12.638 15.3694 12.6735 15.2837C12.709 15.1979 12.7268 15.1048 12.7268 15.0043C12.7268 14.928 12.7159 14.8552 12.6941 14.7858C12.6759 14.7278 12.6501 14.6722 12.6167 14.6189L12.483 14.4059L12.2493 14.3204C12.2261 14.3119 12.2026 14.3046 12.1788 14.2986C12.1207 14.2839 12.0608 14.2766 11.999 14.2766C11.9295 14.2766 11.8626 14.2857 11.7983 14.3041C11.753 14.3171 11.709 14.3345 11.6663 14.3566L11.4464 14.4702ZM16.7122 7.60726L16.9498 7.66417C16.9518 7.66463 16.9537 7.66509 16.9556 7.66554C17.0094 7.67793 17.0645 7.68413 17.1211 7.68413C17.2216 7.68413 17.3147 7.66637 17.4005 7.63084C17.4862 7.59532 17.5646 7.54203 17.6357 7.47098C17.7067 7.39993 17.76 7.32152 17.7956 7.23576C17.8311 7.14999 17.8488 7.05687 17.8488 6.95639C17.8488 6.85591 17.8311 6.76279 17.7956 6.67702C17.76 6.59126 17.7067 6.51285 17.6357 6.4418C17.5646 6.37075 17.4862 6.31746 17.4005 6.28194C17.3147 6.24641 17.2216 6.22865 17.1211 6.22865C17.0206 6.22865 16.9275 6.24641 16.8417 6.28194C16.756 6.31746 16.6776 6.37075 16.6065 6.4418C16.5355 6.51285 16.4822 6.59126 16.4466 6.67702C16.4111 6.76279 16.3934 6.85591 16.3934 6.95639C16.3934 7.04467 16.4075 7.12779 16.4359 7.20575C16.4629 7.28002 16.5028 7.34962 16.5556 7.41453L16.7122 7.60726ZM4.02988 18.6947C3.6709 18.6947 3.37988 18.9857 3.37988 19.3447C3.37988 19.7037 3.6709 19.9947 4.02988 19.9947L19.9952 19.9947C20.3541 19.9947 20.6452 19.7037 20.6452 19.3447C20.6452 18.9857 20.3541 18.6947 19.9952 18.6947L4.02988 18.6947Z"/></svg>

<svg xmlns="http://www.w3.org/2000/svg" fill="none" viewBox="0 0 24 24" focusable="false"><g fill="#74767B" fill-rule="evenodd"><path d="m11.06 13.2-2.31-2.32c.13-.26.2-.56.2-.87 0-1.12-.91-2.02-2.03-2.02s-2.03.9-2.03 2.02.91 2.03 2.03 2.03c.33 0 .65-.08.93-.22l2.31 2.31c-.12.26-.19.56-.19.87 0 1.12.9 2.03 2.02 2.03a2.031 2.031 0 0 0 1.72-3.11l2.93-5q.225.06.48.06c1.12 0 2.02-.91 2.02-2.03s-.9-2.03-2.02-2.03a2.031 2.031 0 0 0-1.58 3.31l-2.85 4.86c-.22-.07-.45-.12-.7-.12-.33 0-.65.08-.93.23m-7.69 6.14c0-.36.3-.65.65-.65h15.97c.36 0 .65.29.65.65s-.29.65-.65.65H4.02c-.35 0-.65-.29-.65-.65"/><path d="M8.95 10.01c0 .31-.07.61-.2.87l2.31 2.32c.28-.15.6-.23.93-.23.25 0 .48.05.7.12l2.85-4.86a2.033 2.033 0 0 1 1.58-3.31c1.12 0 2.02.91 2.02 2.03s-.9 2.03-2.02 2.03q-.255 0-.48-.06l-2.93 5a2.031 2.031 0 0 1-1.72 3.11c-1.12 0-2.02-.91-2.02-2.03 0-.31.07-.61.19-.87l-2.31-2.31c-.28.14-.6.22-.93.22-1.12 0-2.03-.91-2.03-2.03s.91-2.02 2.03-2.02 2.03.9 2.03 2.02m-1.48.54-.22.11q-.06.03-.13.05-.1.03-.2.03-.15 0-.28-.05-.13-.06-.24-.16-.1-.11-.16-.24-.05-.13-.05-.28t.05-.28q.06-.13.16-.23.11-.11.24-.16t.28-.05.28.05.23.16q.11.1.16.23.06.13.06.28 0 .1-.03.2-.02.06-.04.11zm3.97 3.92-.1.22q-.03.06-.05.11-.02.1-.02.2 0 .15.05.28t.16.23q.11.11.23.16.13.06.28.06t.28-.06q.13-.05.24-.16.11-.1.16-.23t.05-.28q0-.12-.03-.22-.03-.09-.08-.17l-.13-.21-.24-.08q-.03-.02-.07-.03-.08-.02-.18-.02t-.2.03q-.06.02-.13.05zm5.27-6.87.24.06q.08.02.17.02.15 0 .28-.05.12-.06.23-.16.11-.11.16-.24t.05-.28-.05-.28-.16-.23q-.11-.11-.23-.16-.13-.06-.28-.06t-.28.06q-.13.05-.24.16-.1.1-.16.23-.05.13-.05.28 0 .13.04.25.04.11.12.21zM4.02 18.69c-.35 0-.65.29-.65.65s.3.65.65.65h15.97c.36 0 .65-.29.65-.65s-.29-.65-.65-.65z"/></g></svg>
